X:4
T:Bergeret sans roch
T:(Basse dansse 2)
C:Tielman Susato
S:Tileman Susato: Danserye (1551)
R:Basse dance
M:3/2
L:1/2
T:Bassus
K:C bass
c2c|c2F|c2G|d2G|d2G|c2c|F>GA|G2G|
%
c2c|c2F|c2G|d2d|c2c|c_Bc|AG2|c2z:|
%
c2c|c2c|Fc2|F2z|F2F|_BGA|_BA2|D2z|
%
c2c|c2c|Fc2|F2z|c2c|cFc-|cG2|c2z|
%
c2c|c2F|c2G|d2G|d2G|c2c|F>GA|G2G|
%
c2c|c2F|c2G|d2d|c2c|c_Bc|AG2|c2z|
%
c2c|c2F|c2G|d2G|d2G|c2c|F>GA|G2G|
%
c2c|c2F|c2G|d2d|c2c|c_Bc|AG2|c2z|]
%
